en/_assets/tracker/changelogs/status-1-open.svg

<svg width="78" height="20" viewBox="0 0 78 20" fill="none" xmlns="http://www.w3.org/2000/svg">
<rect width="78" height="20" rx="4" fill="#6B8499" fill-opacity="0.12"/>
<path fill-rule="evenodd" clip-rule="evenodd" d="M10.9055 3.08517C11.2626 3.02906 11.6281 3 12 3C12.3719 3 12.7374 3.02906 13.0945 3.08517C13.5037 3.14948 13.7833 3.53332 13.7189 3.94252C13.6546 4.35171 13.2708 4.63129 12.8616 4.56699C12.5813 4.52294 12.2936 4.5 12 4.5C11.7064 4.5 11.4187 4.52294 11.1384 4.56699C10.7292 4.63129 10.3454 4.35171 10.2811 3.94251C10.2167 3.53332 10.4963 3.14948 10.9055 3.08517ZM8.93254 4.50192C9.17628 4.83683 9.10237 5.30592 8.76746 5.54965C8.30072 5.88934 7.88935 6.30072 7.54966 6.76746C7.30592 7.10237 6.83683 7.17628 6.50192 6.93254C6.16701 6.6888 6.0931 6.21971 6.33684 5.8848C6.76868 5.29145 7.29145 4.76868 7.88481 4.33684C8.21971 4.0931 8.6888 4.16701 8.93254 4.50192ZM15.0675 4.50192C15.3112 4.16701 15.7803 4.0931 16.1152 4.33684C16.7086 4.76868 17.2313 5.29145 17.6632 5.88481C17.9069 6.21971 17.833 6.6888 17.4981 6.93254C17.1632 7.17628 16.6941 7.10237 16.4503 6.76746C16.1107 6.30072 15.6993 5.88935 15.2325 5.54966C14.8976 5.30592 14.8237 4.83683 15.0675 4.50192ZM5.94252 8.28105C6.35171 8.34536 6.63129 8.7292 6.56699 9.1384C6.52294 9.41868 6.5 9.7064 6.5 10C6.5 10.2936 6.52294 10.5813 6.56699 10.8616C6.63129 11.2708 6.35171 11.6546 5.94251 11.7189C5.53332 11.7833 5.14948 11.5037 5.08517 11.0945C5.02906 10.7374 5 10.3719 5 10C5 9.62814 5.02906 9.26256 5.08517 8.90552C5.14948 8.49633 5.53332 8.21675 5.94252 8.28105ZM18.0575 8.28105C18.4667 8.21675 18.8505 8.49633 18.9148 8.90552C18.9709 9.26256 19 9.62814 19 10C19 10.3719 18.9709 10.7374 18.9148 11.0945C18.8505 11.5037 18.4667 11.7833 18.0575 11.7189C17.6483 11.6546 17.3687 11.2708 17.433 10.8616C17.4771 10.5813 17.5 10.2936 17.5 10C17.5 9.7064 17.4771 9.41868 17.433 9.1384C17.3687 8.72921 17.6483 8.34536 18.0575 8.28105ZM6.50192 13.0675C6.83683 12.8237 7.30592 12.8976 7.54965 13.2325C7.88934 13.6993 8.30072 14.1107 8.76746 14.4503C9.10237 14.6941 9.17628 15.1632 8.93254 15.4981C8.6888 15.833 8.21971 15.9069 7.8848 15.6632C7.29145 15.2313 6.76868 14.7086 6.33684 14.1152C6.0931 13.7803 6.16701 13.3112 6.50192 13.0675ZM17.4981 13.0675C17.833 13.3112 17.9069 13.7803 17.6632 14.1152C17.2313 14.7086 16.7086 15.2313 16.1152 15.6632C15.7803 15.9069 15.3112 15.833 15.0675 15.4981C14.8237 15.1632 14.8976 14.6941 15.2325 14.4503C15.6993 14.1107 16.1107 13.6993 16.4503 13.2325C16.6941 12.8976 17.1632 12.8237 17.4981 13.0675ZM10.2811 16.0575C10.3454 15.6483 10.7292 15.3687 11.1384 15.433C11.4187 15.4771 11.7064 15.5 12 15.5C12.2936 15.5 12.5813 15.4771 12.8616 15.433C13.2708 15.3687 13.6546 15.6483 13.7189 16.0575C13.7833 16.4667 13.5037 16.8505 13.0945 16.9148C12.7374 16.9709 12.3719 17 12 17C11.6281 17 11.2626 16.9709 10.9055 16.9148C10.4963 16.8505 10.2167 16.4667 10.2811 16.0575Z" fill="#3B6080"/>
<path d="M29.0582 14.13C28.4342 14.13 27.8492 14.026 27.3032 13.818C26.7572 13.6013 26.2849 13.2893 25.8862 12.882C25.4876 12.4747 25.1712 11.972 24.9372 11.374C24.7119 10.776 24.5992 10.087 24.5992 9.307C24.5992 8.527 24.7119 7.84233 24.9372 7.253C25.1712 6.655 25.4876 6.161 25.8862 5.771C26.2849 5.37233 26.7572 5.07333 27.3032 4.874C27.8492 4.666 28.4342 4.562 29.0582 4.562C29.6909 4.562 30.2802 4.666 30.8262 4.874C31.3722 5.07333 31.8446 5.37233 32.2432 5.771C32.6419 6.16967 32.9539 6.668 33.1792 7.266C33.4046 7.85533 33.5172 8.54 33.5172 9.32C33.5172 10.0913 33.4046 10.776 33.1792 11.374C32.9539 11.972 32.6419 12.4747 32.2432 12.882C31.8446 13.2893 31.3722 13.6013 30.8262 13.818C30.2802 14.026 29.6909 14.13 29.0582 14.13ZM29.0582 13.025C29.5089 13.025 29.9249 12.96 30.3062 12.83C30.6876 12.6913 31.0169 12.479 31.2942 12.193C31.5802 11.8983 31.8012 11.517 31.9572 11.049C32.1219 10.581 32.2042 10.0133 32.2042 9.346C32.2042 8.67867 32.1219 8.111 31.9572 7.643C31.8012 7.175 31.5802 6.798 31.2942 6.512C31.0169 6.21733 30.6876 6.005 30.3062 5.875C29.9249 5.73633 29.5089 5.667 29.0582 5.667C28.6076 5.667 28.1916 5.73633 27.8102 5.875C27.4289 6.005 27.0952 6.21733 26.8092 6.512C26.5319 6.798 26.3109 7.175 26.1462 7.643C25.9902 8.111 25.9122 8.67867 25.9122 9.346C25.9122 10.0133 25.9902 10.581 26.1462 11.049C26.3109 11.517 26.5319 11.8983 26.8092 12.193C27.0952 12.479 27.4289 12.6913 27.8102 12.83C28.1916 12.96 28.6076 13.025 29.0582 13.025ZM37.7101 8.228V14H36.5661V8.228H34.4471V7.253H39.8681V8.228H37.7101ZM42.9304 11.127H42.3324V14H41.1884V7.253H42.3324V10.152H42.9824L45.3484 7.253H46.6484L43.8794 10.581L46.7004 14H45.3094L42.9304 11.127ZM51.2973 14.13C50.7773 14.13 50.3266 14.0087 49.9453 13.766C49.5726 13.5233 49.2736 13.1897 49.0483 12.765V16.301H47.9043V7.253H48.9053L49.0223 8.566C49.2476 8.124 49.5509 7.773 49.9323 7.513C50.3136 7.253 50.7859 7.123 51.3493 7.123C51.7393 7.123 52.1119 7.19667 52.4673 7.344C52.8313 7.48267 53.1476 7.69933 53.4163 7.994C53.6936 8.28 53.9103 8.644 54.0663 9.086C54.2309 9.51933 54.3133 10.0307 54.3133 10.62C54.3133 11.218 54.2309 11.738 54.0663 12.18C53.9016 12.6133 53.6806 12.9773 53.4033 13.272C53.1259 13.558 52.8053 13.7747 52.4413 13.922C52.0773 14.0607 51.6959 14.13 51.2973 14.13ZM51.1283 13.103C51.7263 13.103 52.2073 12.8993 52.5713 12.492C52.9439 12.076 53.1303 11.452 53.1303 10.62C53.1303 9.80533 52.9439 9.19 52.5713 8.774C52.2073 8.34933 51.7263 8.137 51.1283 8.137C50.8336 8.137 50.5563 8.189 50.2963 8.293C50.0449 8.397 49.8239 8.553 49.6333 8.761C49.4513 8.96033 49.3039 9.216 49.1913 9.528C49.0873 9.84 49.0353 10.204 49.0353 10.62C49.0353 11.036 49.0873 11.4 49.1913 11.712C49.3039 12.024 49.4513 12.284 49.6333 12.492C49.8239 12.7 50.0449 12.856 50.2963 12.96C50.5563 13.0553 50.8336 13.103 51.1283 13.103ZM60.6912 11.751C60.6912 12.141 60.6219 12.479 60.4832 12.765C60.3445 13.051 60.1495 13.285 59.8982 13.467C59.6469 13.649 59.3479 13.7833 59.0012 13.87C58.6545 13.9567 58.2775 14 57.8702 14H55.6992V7.253H56.8432V9.606H57.9482C58.8062 9.606 59.4779 9.775 59.9632 10.113C60.4485 10.451 60.6912 10.997 60.6912 11.751ZM62.8102 14H61.6662V7.253H62.8102V14ZM56.8432 10.581V13.025H57.8702C58.3642 13.025 58.7629 12.934 59.0662 12.752C59.3782 12.5613 59.5342 12.2493 59.5342 11.816C59.5342 11.374 59.3955 11.0577 59.1182 10.867C58.8409 10.6763 58.4509 10.581 57.9482 10.581H56.8432ZM67.4045 8.228V14H66.2605V8.228H64.1415V7.253H69.5625V8.228H67.4045Z" fill="#3B6080"/>
</svg>

<svg xmlns="http://www.w3.org/2000/svg" width="78" height="20" fill="none" viewBox="0 0 78 20">
    <rect width="78" height="20" fill="#6B8499" fill-opacity=".12" rx="4"/>
    <path fill="#3B6080" fill-rule="evenodd" d="M10.905 3.085a7.047 7.047 0 0 1 2.19 0 .75.75 0 1 1-.233 1.482 5.547 5.547 0 0 0-1.724 0 .75.75 0 0 1-.232-1.482ZM8.934 4.502a.75.75 0 0 1-.166 1.048c-.466.34-.878.75-1.217 1.217a.75.75 0 0 1-1.213-.882 7.036 7.036 0 0 1 1.548-1.548.75.75 0 0 1 1.048.165Zm6.135 0a.75.75 0 0 1 1.047-.165 7.037 7.037 0 0 1 1.548 1.548.75.75 0 0 1-1.213.882 5.533 5.533 0 0 0-1.217-1.217.75.75 0 0 1-.165-1.048Zm-9.125 3.78a.75.75 0 0 1 .624.856 5.546 5.546 0 0 0 0 1.724.75.75 0 0 1-1.482.232 7.047 7.047 0 0 1 0-2.188.75.75 0 0 1 .858-.625Zm12.115 0a.75.75 0 0 1 .857.624 7.048 7.048 0 0 1 0 2.188.75.75 0 1 1-1.482-.232 5.54 5.54 0 0 0 0-1.724.75.75 0 0 1 .625-.857ZM6.502 13.067a.75.75 0 0 1 1.048.165c.34.466.75.878 1.217 1.217a.75.75 0 0 1-.882 1.213 7.037 7.037 0 0 1-1.548-1.548.75.75 0 0 1 .165-1.047Zm10.996 0a.75.75 0 0 1 .165 1.047 7.037 7.037 0 0 1-1.548 1.548.75.75 0 0 1-.882-1.213 5.53 5.53 0 0 0 1.217-1.217.75.75 0 0 1 1.048-.165Zm-7.217 2.99a.75.75 0 0 1 .857-.625 5.54 5.54 0 0 0 1.724 0 .75.75 0 0 1 .232 1.482 7.048 7.048 0 0 1-2.188 0 .75.75 0 0 1-.625-.857Z" clip-rule="evenodd"/>
    <path fill="#3B6080" d="M29.058 14.13a4.888 4.888 0 0 1-1.755-.312 4.047 4.047 0 0 1-1.417-.936 4.434 4.434 0 0 1-.949-1.508c-.225-.598-.338-1.287-.338-2.067 0-.78.113-1.465.338-2.054.234-.598.55-1.092.95-1.482a3.838 3.838 0 0 1 1.416-.897 4.888 4.888 0 0 1 1.755-.312c.633 0 1.222.104 1.768.312.546.2 1.019.498 1.417.897.399.399.71.897.936 1.495.226.59.338 1.274.338 2.054 0 .771-.112 1.456-.338 2.054a4.279 4.279 0 0 1-.936 1.508c-.398.407-.87.72-1.417.936a4.925 4.925 0 0 1-1.768.312Zm0-1.105c.45 0 .867-.065 1.248-.195a2.59 2.59 0 0 0 .988-.637c.286-.295.507-.676.663-1.144.165-.468.247-1.036.247-1.703s-.082-1.235-.247-1.703c-.156-.468-.377-.845-.663-1.131a2.401 2.401 0 0 0-.988-.637 3.626 3.626 0 0 0-1.248-.208c-.45 0-.866.07-1.248.208-.381.13-.715.342-1 .637-.278.286-.5.663-.664 1.131-.156.468-.234 1.036-.234 1.703s.078 1.235.234 1.703c.165.468.386.85.663 1.144.286.286.62.498 1.001.637.382.13.798.195 1.248.195Zm8.652-4.797V14h-1.144V8.228h-2.119v-.975h5.421v.975H37.71Zm5.22 2.899h-.598V14h-1.144V7.253h1.144v2.899h.65l2.366-2.899h1.3l-2.769 3.328L46.7 14h-1.39l-2.38-2.873Zm8.367 3.003c-.52 0-.97-.121-1.352-.364a2.647 2.647 0 0 1-.897-1.001v3.536h-1.144V7.253h1.001l.117 1.313c.226-.442.529-.793.91-1.053.382-.26.854-.39 1.417-.39.39 0 .763.074 1.118.221.364.139.68.355.95.65.277.286.493.65.65 1.092.164.433.246.945.246 1.534 0 .598-.082 1.118-.247 1.56a3.262 3.262 0 0 1-.663 1.092 2.78 2.78 0 0 1-.962.65 3.186 3.186 0 0 1-1.144.208Zm-.169-1.027c.598 0 1.08-.204 1.443-.611.373-.416.56-1.04.56-1.872 0-.815-.187-1.43-.56-1.846-.364-.425-.845-.637-1.443-.637a2.22 2.22 0 0 0-.832.156c-.251.104-.472.26-.663.468-.182.2-.33.455-.442.767a3.457 3.457 0 0 0-.156 1.092c0 .416.052.78.156 1.092.113.312.26.572.442.78.19.208.412.364.663.468.26.095.538.143.832.143Zm9.563-1.352c0 .39-.07.728-.208 1.014-.139.286-.333.52-.585.702-.251.182-.55.316-.897.403a4.63 4.63 0 0 1-1.13.13h-2.172V7.253h1.144v2.353h1.105c.858 0 1.53.169 2.015.507.486.338.728.884.728 1.638ZM62.811 14h-1.145V7.253h1.144V14Zm-5.968-3.419v2.444h1.027c.494 0 .893-.091 1.196-.273.312-.19.468-.503.468-.936 0-.442-.139-.758-.416-.949-.277-.19-.667-.286-1.17-.286h-1.105Zm10.561-2.353V14H66.26V8.228h-2.119v-.975h5.421v.975h-2.157Z"/>
</svg>
